src/assets/fleet-icons/map-question-icon.svg

<svg width="28" height="28" viewBox="0 0 28 28" fill="none" xmlns="http://www.w3.org/2000/svg">
<rect width="28" height="28" rx="3" fill="none"/>
<circle cx="14.3333" cy="14.3333" r="7.70833" stroke="currentColor" stroke-width="1.25"/>
<path d="M13.0661 12.6318C13.0661 11.9158 13.6358 11.3407 14.3451 11.3407C15.0544 11.3407 15.6242 11.9158 15.6242 12.6318C15.6242 13.3477 15.0777 13.8876 14.3916 13.9229H13.7288V15.7891H14.9498V15.0379C16.0312 14.7914 16.8335 13.8172 16.8335 12.6435C16.8335 11.2351 15.7172 10.167 14.3335 10.167C12.9498 10.167 11.8335 11.1881 11.8335 12.6435H13.0544L13.0661 12.6318ZM13.5544 18.5003H15.1126V16.9276H13.5544V18.5003Z" fill="currentColor"/>
</svg>

<svg width="28" height="28" fill="none" xmlns="http://www.w3.org/2000/svg">
    <rect width="28" height="28" rx="3" />
    <circle cx="14.333" cy="14.333" r="7.708" stroke="currentColor" stroke-width="1.25" />
    <path
        d="M13.066 12.632c0-.716.57-1.291 1.28-1.291.708 0 1.278.575 1.278 1.29a1.28 1.28 0 0 1-1.232 1.292h-.663v1.866h1.22v-.751a2.44 2.44 0 0 0 1.885-2.395c0-1.408-1.117-2.476-2.5-2.476-1.384 0-2.5 1.021-2.5 2.476h1.22l.012-.011Zm.488 5.868h1.559v-1.572h-1.559V18.5Z"
        fill="currentColor" />
</svg>
